main/ring-close-fill.svg

<svg id="ring-close-fill" xmlns="http://www.w3.org/2000/svg" width="32" height="32" fill="none">
<path fill="#fff" d="M29 16C29 23.1797 23.1797 29 16 29C8.8203 29 3 23.1797 3 16C3 8.8203 8.8203 3 16 3C23.1797 3 29 8.8203 29 16Z" />
<path fill="#1076DB" fill-rule="evenodd" clip-rule="evenodd" d="M16 28C22.6274 28 28 22.6274 28 16C28 9.37258 22.6274 4 16 4C9.37258 4 4 9.37258 4 16C4 22.6274 9.37258 28 16 28ZM16 29C23.1797 29 29 23.1797 29 16C29 8.8203 23.1797 3 16 3C8.8203 3 3 8.8203 3 16C3 23.1797 8.8203 29 16 29Z" />
<path fill="#1076DB" d="M20.2545 20.9324C20.0775 20.9294 19.9088 20.8565 19.7852 20.7298L11.2518 12.1964C11.05 12.0347 10.9589 11.7714 11.0176 11.5195C11.0763 11.2676 11.2744 11.0717 11.5269 11.0159C11.7795 10.96 12.0417 11.0541 12.2012 11.2578L20.7345 19.7911C20.9892 20.0522 20.9892 20.4687 20.7345 20.7298C20.6057 20.8553 20.4343 20.9277 20.2545 20.9324Z"/>
<path fill="#1076DB" d="M11.721 20.9324C11.9008 20.9277 12.0723 20.8553 12.201 20.7298L20.7344 12.1964C20.9447 11.9278 20.9203 11.5442 20.6777 11.3044C20.4351 11.0645 20.0513 11.0445 19.785 11.2578L11.2517 19.7911C11.0643 19.9831 11.009 20.268 11.1111 20.5161C11.2131 20.7642 11.4528 20.9279 11.721 20.9324V20.9324Z" />
</svg>

<svg id="ring-close-fill" xmlns="http://www.w3.org/2000/svg" width="32" height="32" fill="none"><path fill="#fff" d="M29 16c0 7.18-5.82 13-13 13S3 23.18 3 16 8.82 3 16 3s13 5.82 13 13Z"/><path fill="#484848" fill-rule="evenodd" d="M16 28c6.627 0 12-5.373 12-12S22.627 4 16 4 4 9.373 4 16s5.373 12 12 12Zm0 1c7.18 0 13-5.82 13-13S23.18 3 16 3 3 8.82 3 16s5.82 13 13 13Z" clip-rule="evenodd"/><path fill="#484848" d="M20.255 20.932a.672.672 0 0 1-.47-.202l-8.533-8.534a.672.672 0 1 1 .95-.938l8.533 8.533a.672.672 0 0 1 0 .939.715.715 0 0 1-.48.202Z"/><path fill="#484848" d="M11.721 20.932a.714.714 0 0 0 .48-.202l8.533-8.534a.672.672 0 0 0-.949-.938l-8.533 8.533a.672.672 0 0 0 .469 1.141Z"/></svg>
